X:1
T:Speak to Me Only of Jesus
T:Speak to Me Only of Jesus
T:Bentley DeForest Ackley
T:Lizzie DeArmond, 1914
T:Public Domain Courtesy of the Cyber Hymnal™
C:Bentley DeForest Ackley
Z:Public Domain
Z:Courtesy of the Cyber Hymnal™
%%score 1 2
L:1/8
Q:1/4=170
M:6/4
K:Ab
V:1 treble 
V:2 bass 
V:1
 [Ec]2 [=D=B]2 [Ec]2 [CE]2 [=B,D]2 [CE]2 | [DF]6 [Fd]6 | [Ed]2 [EB]2 [EG]2 [DE]2 [DF]2 [DE]2 | %3
w: 1.~Speak to me on- ly of|Je- sus,|Tell of the cross that He|
w: 2.~Speak to me on- ly of|Je- sus,|Tell of His grace day by|
w: 3.~Speak to me on- ly of|Je- sus,|Tell of His won- der- ful|
w: 4.~Speak to me on- ly of|Je- sus,|Tell of His mer- cy so|
 [Ec]12 | [Ec]2 [=D=B]2 [Ec]2 [CE]2 [=B,D]2 [CE]2 | [DF]6 [Fd]6 | %6
w: wore,|Tell of the shame and the|sor- row,|
w: day,|Tell how the blood of a-|tone- ment|
w: love,|Tell how He came as a|Sav- ior,|
w: free,|Tell how, when lost in the|dark- ness,|
 [Ec]3 [DB] [CA]2 [DB] [Ec]3 [DB]2 | [CA]12 ||"^Refrain" [FA]2 [CG]2 [CF]2 [FA]2 [CG]2 [CF]2 | %9
w: Tell of the bur- den He|bore.||
w: Wash- es my guilt all a-|way.|Speak to me on- ly of|
w: Down from the glo- ry a-|bove.||
w: Je- sus came seek- ing for|me.||
 [=Ec]6 [Ec]6 | [=Dc]2 [DB]2 [DA]2 [DF]2 [DG]2 [DA]2 | [DB]12 | %12
w: |||
w: Je- sus,|Dy- ing on Cal- va- ry’s|tree,|
w: |||
w: |||
 [Ec]2 [=D=B]2 [Ec]2 [CE]2 [CA]2 [Ec]2 | [_Ge]6 [Fd]4 [Fd]2 | [Ec]3 [DB] [CA]2 [DB] [Ec]3 [DB]2 | %15
w: |||
w: Speak to me on- ly of|Je- sus, His|name is so pre- cious to|
w: |||
w: |||
 [CA]12 |] %16
w: |
w: me.|
w: |
w: |
V:2
 [A,,A,]2 [A,,A,]2 [A,,A,]2 [A,,A,]2 [A,,F,]2 [A,,A,]2 | [D,A,]6 [D,A,]6 | %2
 [E,G,]2 [E,D]2 [E,B,]2 [E,G,]2 [E,A,]2 [E,G,]2 | [A,,A,]12 | %4
 [A,,A,]2 [A,,A,]2 [A,,A,]2 [A,,A,]2 [A,,F,]2 [A,,A,]2 | [D,A,]6 [D,A,]6 | %6
 [E,A,]3 [E,G,] [E,A,]2 [E,G,] [E,A,]3 [E,G,]2 | [A,,A,]12 || %8
 [F,C]2 [F,B,]2 [F,A,]2 [F,C]2 [F,B,]2 [F,A,]2 | [C,G,]6 [C,G,]6 | %10
 [B,,A,]2 [B,,F,]2 [B,,F,]2 [B,,A,]2 [B,,G,]2 [B,,F,]2 | [E,G,]12 | %12
 [A,,A,]2 [A,,A,]2 [A,,A,]2 [A,,A,]2 [A,,A,]2 [A,,A,]2 | [C,A,]6 [D,A,]4 [D,A,]2 | %14
 [E,A,]3 [E,G,] [E,A,]2 [E,G,] [E,A,]3 [E,G,]2 | [A,,E,A,]12 |] %16

